X: 9209
T: Dan Breen's
R: reel
M: 4/4
K: Adorian
~e2 dB ~A3 G|EAAG ~A2 Bd|~e2 dB ~A3 G|EGGF ~G2:|
~e3 d edBd|eaag ea ~a2|~e3 d edBd|(3Bcd ef g2:|

